park-logo.svg

<svg width="167" height="128" viewBox="0 0 167 128" fill="none" xmlns="http://www.w3.org/2000/svg">
<g clip-path="url(#clip0_1_2)">
<path d="M27.103 0.199998L0.202999 127.298H9.403L34.403 8.798H44.203L19.203 127.298H28.403L55.203 0.197998H27.103V0.199998ZM123.305 16.899C124.605 11.099 123.905 6.799 121.505 3.999C119.405 1.599 116.205 0.298998 112.005 0.298998H99.705L72.805 127.399H82.005L88.505 96.599H92.505C101.505 96.599 107.605 90.799 109.905 80.499L123.305 16.899V16.899ZM101.105 79.799C99.505 86.899 96.305 87.899 93.705 87.899H90.305L107.005 8.799H110.905C112.305 8.799 113.505 9.099 114.005 9.799C115.005 10.799 115.005 12.999 114.505 16.199L101.105 79.799V79.799ZM81.8 0.199998H72.7L34.5 127.298H43.7L49.4 108.598H59.5L57.3 127.298H66.5L82.2 0.198998H81.8V0.199998ZM60.6 100.099H52.1L72.7 22.699L60.6 100.099V100.099ZM156.406 0.199998L132.406 59.7L145.006 0.199998H135.806L108.906 127.299H118.106L132.206 60.699V127.299H141.506V59.899L166.406 0.198998H156.406V0.199998Z" fill="white"/>
</g>
<defs>
<clipPath id="clip0_1_2">
<rect width="167" height="128" fill="white"/>
</clipPath>
</defs>
</svg>

<?xml version="1.0" encoding="utf-8"?>
<!-- Generator: Adobe Illustrator 26.2.1, SVG Export Plug-In . SVG Version: 6.00 Build 0)  -->
<svg version="1.1" id="Layer_1" xmlns="http://www.w3.org/2000/svg" xmlns:xlink="http://www.w3.org/1999/xlink" x="0px" y="0px"
	 viewBox="0 0 167 128" style="enable-background:new 0 0 167 128;" xml:space="preserve">
<style type="text/css">
	.st0{fill:#FFFFFF;}
</style>
<path class="st0" d="M55.9,4c-2.1-2.4-5.3-3.7-9.5-3.7H34.1L7.2,127.4h9.2l6.5-30.8h4c9,0,15.1-5.8,17.4-16.1l13.4-63.6
	C59,11.1,58.3,6.8,55.9,4z M48.9,16.2L35.5,79.8c-1.6,7.1-4.8,8.1-7.4,8.1h-3.4L41.4,8.8h3.9c1.4,0,2.6,0.3,3.1,1
	C49.4,10.8,49.4,13,48.9,16.2z"/>
<path class="st0" d="M81.8,0.2L81.8,0.2l-9.1,0L34.5,127.3h9.2l5.7-18.7h10.1l-2.2,18.7h9.2L82.2,0.2H81.8z M60.6,100.1h-8.5
	l20.6-77.4L60.6,100.1z"/>
<polygon class="st0" points="156.4,0.2 132.4,59.7 145,0.2 135.8,0.2 108.9,127.3 118.1,127.3 132.2,60.7 132.2,127.3 141.5,127.3 
	141.5,59.9 166.4,0.2 156.4,0.2 "/>
<path class="st0" d="M-58.7,132.4"/>
<path class="st0" d="M121.5,4c-2.1-2.4-5.3-3.7-9.5-3.7H99.7L72.8,127.4H82l6.5-30.8h4c0.4,0,0.8,0,1.2,0v30.8h9.3V93
	c3.3-2.7,5.6-7,6.9-12.5l13.4-63.6C124.6,11.1,123.9,6.8,121.5,4z M114.5,16.2l-13.4,63.6c-1.6,7.1-4.8,8.1-7.4,8.1h-3.4L107,8.8
	h3.9c1.4,0,2.6,0.3,3.1,1C115,10.8,115,13,114.5,16.2z"/>
</svg>
